X:1
T:Herbstlied (Autumn song)
T:Sechs zweistimmige Lieder mit begleitung des Pianoforte (Op. 63)
T:Herbstlied (Autumn Song)
T:From Sechs zweistimmige Lieder mit begleitung des Pianoforte (Op. 63)
T:Felix Mendelssohn-Bartholdy
T:Transcribed from IMSLP Public Domain sheet music. Leipzig: Kistner, n.d.(ca.1844). Plate 1431.
T:Transcribed from IMSLP Public Domain sheet music. Leipzig: Kistner, n.d.(ca.1844). Plate 1431.
T:Transcribed from IMSLP Public Domain sheet music. Leipzig: Kistner, n.d.(ca.1844). Plate 1431.
T:Transcribed from IMSLP Public Domain sheet music. Leipzig: Kistner, n.d.(ca.1844). Plate 1431.
T:Transcribed from IMSLP Public Domain sheet music. Leipzig: Kistner, n.d.(ca.1844). Plate 1431.
T:Transcribed from IMSLP Public Domain sheet music. Leipzig: Kistner, n.d.(ca.1844). Plate 1431.
C:Felix Mendelssohn-Bartholdy
Z:Transcribed from IMSLP Public Domain sheet music. Leipzig: Kistner, n.d.(ca.1844). Plate 1431.
%%score [ 1 2 ] { ( 3 5 ) | 4 }
L:1/8
Q:1/4=144
M:6/8
K:A
V:1 treble nm="Soprano I" snm="S I."
V:2 treble nm="Soprano II" snm="S II."
V:3 treble nm="Pianoforte" snm="Pno."
V:5 treble 
V:4 bass 
V:1
 z6 | c3 A2 B | c3- c2 c | cAB!<(! cde!<)! |!f! f3 d3 | d3 d2 d | c3 e2 c | (c2 B) (A2 B) | G6 | %9
w: |Ach, wie so|bald _ ver-|hal- * * let _ der|Rei- gen,|wan- delt sich|Früh- ling in|Win- * ter- *|zeit!|
 c3 A2 B | c3 c2 c | cAB!<(! cde!<)! |!f! f3 d3 | d3 d2 d | c3 c2 B | A3 (A2 G) | F6 | c3 G2 G | %18
w: Ach, wie so|bald _ in|trau- * * rendes _ _|Schwei- gen,|wan- delt sich|al- le die|Fröh- lich- *|keit!|Bald sind die|
 A3- AGF | (F2 ^E) EFG | G3 F3 | z6 | z6 | z6 | z6 | f3 e2 e | d3 c3 | B3 A3 |!<(! G6!<)! | %29
w: letz- * * ten|Klän- * ge _ ver-|flo- gen.|||||Bald ist das|letz- te|Grün da-|hin!|
"^cresc." G3 c2 e | (e3 ^d2) c | ^B3 ^d3 | (^d3 c3) | G3 c2 e | (e3 ^d2) c | c3 (^d2 ^B) | c6 | %37
w: Al- le sie|wol- * len|heim- wärts|zieh'n! _|Al- le sie|wol- * len|heim- wärts _|zieh'n,|
 c3 c2 c | c3- cBA | (G2 B) (d2 f) | ^e6 | z6 | z6 | z6 | z6 | c3 A2 B | c3- c2 c | %47
w: bald ist das|letz- * * te|Grün _ da- *|hin!-|||||Ach, wie so|bald _ ver-|
 cAB!<(! cde!<)! | f3 d3 | d3 d2 d | c3 (c2 B) | A3 A2 G | F6 |!<(! A3 A2 A | B3 B3!<)! | %55
w: hal- * * let _ der|Rei- gen,|wan- delt sich|Lust in _|seh- nen- des|Leid.|Wart, ihr ein|Traum, ihr|
!>(! f3 e2!>)! d | d3 c3 | z6 | z6 | z6 | z6 |!<(! A3 A2 A | B3 B3!<)! |!>(! f3!>)! e2 d | c6 | %65
w: Lie- bes- ge-|dan- ken?|||||Süss wie der|Lenz und|schnell _ ver-|weht?-|
 z6 | z6 |"^cresc." F3 F2 F | !>!d3 c2 c | B3 A3 |"_a tempo" G3 G3 | z6 | z6 | %73
w: ||Ei- nes, nur|Ei- nes will|nim- mer|wan- ken:|||
"^e ritard.""^cresc." G3 G2 G | A3 G2 G | G3 G2 G |!f! !fermata!f6- |"_a tempo" f6- | f6- | f2 z4 | %80
w: Es ist das|Seh- nen, das|nim- mer ver-|geht.||||
 z6 | c3"^cresc." A2 B | c3 c2 c | cAB cAF | F3 ^E3 |!f! c3 A2 B | c3- c2 c |!<(! cAB cde!<)! | %88
w: |Ach, wie so|bald _ ver-|hal- * * let _ der|Rei- gen!|Ach, wie so|bald _ in-|trau- * * ren- * des|
 f3 d3 | d3 d2 d | c3 c2 B | A3 (A2 G) | c6 | d3 d2 d | c3 c2 B | A3 (A2 G) | F2 z (f2 d) | %97
w: Schwei- gen|wan- delt sich|al- le die|Fröh- lich- *|keit,|wan- delt sich|al- le die|Fröh- lich- *|keit, Ach, _|
 c3 (f2 d) | c6 | z6 | z2 z (!>!f2 d) |"^cresc." c3 (f2 d) | c6- | c6 |!p! c6 | A3 G3 | F6 | z6 | %108
w: wie so _|balt!||Ach, _|wie so _|balt!|_|Ach,|wie so|bald!||
 !fermata!z6 |] %109
w: |
V:2
 z6 | A3 F2 G | A3- A2 A | AFG!<(! ABc!<)! |!f! d3 B3 | B3 B2 B | A3 c2 A | (A2 G) (F2 G) | ^E6 | %9
w: |Ach, wie so|bald _ ver-|hal- * * let _ der|Rei- gen,|wan- delt sich|Früh- ling in|Win- * ter- *|zeit!|
 A3 F2 G | A3 A2 A | AFG!<(! ABc!<)! |!f! d3 B3 | B3 B2 B | A3 A2 G | F3 (F2 ^E) | F6 | z6 | z6 | %19
w: Ach, wie so|bald _ in|trau- * * rendes _ _|Schwei- gen,|wan- delt sich|al- le die|Fröh- lich- *|keit!|||
 z6 | z6 | c3 G2 G | A3- AGF | (c2 ^A) F2 E | E3 D3 | z6 | F6- | F6- |!<(! F6!<)! | %29
w: ||Bald sind die|letz- * * ten|Sän- * ger ge-|zo- gen!||Bald!|_||
"^cresc." =E3 E2 G | (G3 F2) E | ^D3 F3 | (F3 E3) | E3 E2 G | (G3 F2) E | E3 (F2 ^D) | E6 | z6 | %38
w: Al- le sie|wol- * len|heim- wärts|zieh'n! _|Al- le sie|wol- * len|heim- wärts _|zieh'n,||
 z6 | z6 | z6 | c3 c2 c | c3- cBA | (A2 G) (G2 F) | ^E6 | A3 F2 G | A3- A2 A | AFG!<(! ABc!<)! | %48
w: |||Al- le sie|wol- * * len|heim- * wärts _|zieh'n.-|Ach, wie so|bald _ ver-|hal- * * let _ der|
 d3 B3 | B3 B2 B | A3 (A2 G) | F3 F2 ^E | F6 | z6 | z6 | z6 | z6 |!<(! c3 c2 c | d3 A3!<)! | %59
w: Rei- gen,|wan- delt sich|Lust in _|seh- nen- des|Leid.|||||Süss wie der|Lenz und|
!>(! =G3!>)! A3 | F6 | z6 | z6 | z6 | z6 | c3 c2 c |"^cresc." !>!d3 c2 c | B3 A3 | G3 G3 | z3 F3 | %70
w: schnell ver-|weht?-|||||Ei- nes, nur|Ei- nes will|nim- mer|wan- ken:|nur|
"^cresc." !>!d3 c2 c | B3 A3 | G3 G3 |"^e retard.""^cresc." G3 G2 G | A3 G2 G | G3 G2 G | %76
w: Ei- nes will|nim- mer|wan- ken:-|Es ist das|Seh- nen, das|nim- mmer ver-|
!f! !fermata!G6 | c3 A2 B | c3 c2 c | cAB cAF | F3 ^E3 | z z z4 | z6 | z6 | z6 |!f! A3 F2 G | %86
w: geht.|Ach, wie so|bald _ ver-|hal- * * let _ der|Rei- gen!|||||Ach, wie so|
 A3- A2 A |!<(! AFG ABc!<)! | d3 B3 | B3 B2 B | A3 A2 G | F3 (F2 ^E) | F6 | B3 B2 B | A3 A2 G | %95
w: bald _ in|trau- * * ren- * des|Schwei- gen|wan- delt sich|al- le- die|Frö- lich- *|keit,|wan- delt sich|al- le- die|
 F3 (F2 ^E) | F6 | z6 | z2 z!p! (c2 B) | A3 (A2 G) | F3 (!>!d2 B) |"^cresc." A3 (d2 B) | A6- | A6 | %104
w: Frö- lich- *|keit,||Ach, _|wie so _|balt! Ach, _|wie so _|balt!|_|
!p! A6 | F3 ^E3 | F6 | z6 | !fermata!z6 |] %109
w: Ach,|wie *|bald!|||
V:3
 z (A,C [FA]C[FA]) | z (A,C [FA]C[FA]) | z (A,C [FA]C[FA]) | z (A,C [FA]C[FA]) | %4
 z (B,D [FA]D[FA]) | z (B,D [FA]3) | z (A,C [EA]3) | z (D[FG]) z (D[FG]) | z (B,C [EG]C[EG]) | %9
 z (A,C [FA]C[FA]) | z (A,C [FA]C[FA]) | z (A,C [FA]C[FA]) | z (B,D [FA]D[FA]) | z (B,D [EG]3) | %14
 z (B,D [FA]3) | z ([A,C][FA]) z ([B,C][^EG]) | z (A,C [FA]C[FA]) | z (B,C [GB]3) | z (A,C [FA]3) | %19
 z (G,D [^EG]3) | z (A,C [FA]C[FA]) | z (B,C [GB]3) | z (A,C [FA]3) | z (^A,C [EF^A]3) | %24
 z (F,B, [DF]B,[DF]) | z (F,C [EF]3) | z (D[FBd]) z (E[F^Ac]) | z (B,[FB]) z (C[F=A]) | %28
 z (G,^D [FG]=D[FG]) | z (G,C [EG]3) | z (G,C [EG]3) | z (G,^D [EF]3) | z (G,C [EG]C[EG]) | %33
 z (G,C [EG]3) | z (A,C [FA]3) | z (G,C [FG]^D[FG]) | z (G,C [EG]C[EG]) | z (B,C [^EG])C[EG] | %38
 z (A,C [FA]3) | z (B,D [FG]3) | z (B,C [^EG]C[EG]) | z (A,C [^EA]3) | z (F,A, [DF]3) | %43
 z (G,B, D3-) | (D2 C) (C2 B,) | z (A,C [FA]C[FA]) | z (A,C [FA]C[FA]) | z (A,C [FA]C[FA]) | %48
 z (B,D [FA]D[FA]) | z (B,D [EG]D[EG]) | z (C[EAc] z) (D[GB]) | z (C[FA]) z (B,[C^E]) | %52
 z (A,C [FA]C[FA]) |!p! z (A,D) [FA]3- |!<(! [FA](B,D [FA]3-)!<)! |!>(! [FA](=G,B, [E=G]3-) | %56
 [EG](=G,A, [E=G]3-)!>)! | [EG](G,A, [E=G]3) | z!p! (E,A, [DF]3) | z (=G,A, [CE]3) | %60
 z (F,A, [DF]A,[DF]) |!<(! z (A,D [FA]3-) | [FA](A,D [FA]3-)!<)! |!>(! [FA](=G,B, [E=G]3-)!>)! | %64
 [E=G]=G,A, [EG]3- | [EG]CE [E=Gc]3 |!p! z (D[Fd] z) (C[Fc]) | z (B,[FB] z) (C[FA]) | %68
 z"_cresc." (D[FGd] z) (C[FGc]) | z (B,[Fd] z) (C[Fc]) |"_cresc." z ((B,[Fd] z)) ((C[Fc])) | %71
 z (B,[FGB] z) (C[FA]) | z (^DF GFG) | [^DFG]3 [DFG]2 [DFG] | [^DFA]3 [DFG]2 [DFG] | %75
 [^DFG]3 [DFG]2 [DFG] | !fermata![^B,FG^B]6 |!p! z"^a tempo" (A,C [FA]C[FA]) | z (A,C [FA]C[FA]) | %79
 z (A,C [FA]C[FA]) | z (B,D [GB]D[GB]) | z (A,C [FA]C[FA]) | z (A,C [FA]C[FA]) | %83
 z (A,C [FA]C[FA]) | z (B,D [GB]D[GB]) |!f! z (A,C [FA]C[FA]) | z (A,C [FA]C[FA]) | %87
 z (A,C [FA]C[FA]) | z (B,D [FA]D[FA]) | z (B,D [EG]D[EG]) | z (B,[EAc]) z (D[GB]) | %91
 z (C[FA]) z (D[^EG]) | z (CF [Ac]GF | ^E=DE) [Bd]3 | z (C[FAc]) z (D[GB]) | %95
 z (A,[CFA]) z (B,[C^E]) | z (A,[CF-]) [B,DF]3 | z (A,[CF-] [B,DF]3) | z (A,[CF]) [D^E]3 | %99
 z CF [B,C^E]3 | z (A,[CF-]) [B,DF]3 | z (A,[CF-]) [B,DF]3 | z (A,C [FA]C[FA]-) | %103
 [FA]C[FA]- [FA]C[FA]- |!p! [FA](A,C [FA]2) z | z2 z [B,C^E]2 z | z (A,C [FA]C[FA]) | %107
 z (A,C [FA]C[FA]) | z2 z !fermata![A,CF]2 z |] %109
V:4
!mf! [F,,F,]2 z z2 z | [F,,F,]2 z z2 z | [F,,F,]2 z z2 z | [E,,E,]2 z z2 z | [D,,D,]2 z z2 z | %5
 [E,,E,]2 z z2 z | [A,,,A,,]2 z z2 z | [B,,,B,,]2 z [B,,,B,,]2 z | [C,,C,]2 z z2 z | %9
 [F,,,F,,]2 z z2 z | [F,,F,]2 z z2 z | [E,,E,]2 z z2 z | [D,,D,]2 z z2 z | [E,,E,]2 z z2 z | %14
 A,,2 z B,,2 z | C,2 z [C,,C,]2 z | [B,,,B,,]2 z z2 z | [^E,,C,]2 z z2 z | [F,,C,]2 z z2 z | %19
 [B,,,B,,]2 z z2 z | [A,,,A,,]2 z z2 z | [^E,,C,]2 z z2 z | [F,,C,]2 z z2 z | [F,,F,]2 z z2 z | %24
 [G,,,B,,]2 z z2 z | ^A,,2 z z2 z | B,,2 z C,2 z | D,2 z C,2 z | ^B,,6 | [C,,C,]6 | [G,,,G,,]6 | %31
 [G,,,G,,]6 | [C,,C,]6 | E,,6 | [F,,,F,,]6 | [G,,,G,,]6 | C,,2 z4 | [C,,C,]2 z z2 z | %38
 [D,,D,]2 z z2 z | [B,,,B,,]2 z z2 z | [C,,C,]2 z z2 z | [A,,,A,,]2 z z2 z | [D,,D,]2 z z2 z | %43
 [B,,,B,,-]6 | (B,,2 A,,) (A,,2 G,,) | [F,,F,]2 z z2 z | [F,,F,]2 z z2 z | [E,,E,]2 z z2 z | %48
 [D,,D,]2 z z2 z | [E,,E,]2 z z2 z | A,,2 z B,,2 z | C,2 z C,2 z | F,,2 z z2 z |!p! F,,6 | =G,,6 | %55
 [=G,,,=G,,]6 | [A,,,A,,]6 | A,,6 |!p! [A,,,A,,]6 | [A,,,A,,]6 | D,,6 | [F,,,F,,]6 | [=G,,,=G,,]6 | %63
 [=G,,,=G,,]6 | [A,,,A,,]6 | [^A,,,^A,,]6 |!p! B,,2 z C,2 z | D,2 z C,2 z | B,,2 z C,2 z | %69
 D,2 z C,2 z | [B,,,B,,]2 z [C,,C,]2 z | [D,,D,]2 z [C,,C,]2 z | [^B,,,^B,,]2 z z2 z | %73
 [^B,,D,F,G,]3 [B,,D,F,G,]2 [B,,D,F,G,] | [^C,D,F,A,]3 [^B,,D,F,G,]2 [B,,D,F,G,] | %75
 [^B,,D,F,G,]3 [B,,D,F,G,]2 [B,,D,F,G,] | !fermata![^D,F,G,]6 |!p! [C,,C,]2 z z2 z | %78
 [C,,C,]2 z z2 z | [C,,C,]2 z z2 z | [C,,C,]2 z z2 z | [C,,C,]2 z z2 z | [C,,C,]2 z z2 z | %83
 [C,,C,]2 z z2 z | [C,,C,]2 z z2 z | [F,,F,]2 z z2 z | [F,,F,]2 z z2 z | [E,,E,]2 z z2 z | %88
 [D,,D,]2 z z2 z | [E,,E,]2 z z2 z | [A,,,A,,]2 z [B,,,B,,]2 z | [C,,C,]2 z [B,,,B,,]2 z | %92
 [A,,,A,,]6 | [G,,,G,,]6 | [A,,,A,,]2 z [B,,,B,,]2 z | [C,,C,]2 z [C,,C,]2 z | [F,,F,]2 z z2 z | %97
 [F,,F,]2 z z2 z | [F,,F,]2 z z2 z | [F,,F,]2 z z2 z | [F,,F,]2 z z2 z | [F,,F,]2 z z2 z | %102
 [F,,F,]2 z [C,,C,]2 z | [A,,,A,,]2 z [F,,,F,,]2 z |!p! [A,,,A,,]2 z z2 z | z2 z [C,,C,]2 z | %106
 [F,,,F,,]2 z z2 z | [F,,,F,,]2 z z2 z | [F,,,F,,]2 z !fermata!z2 z |] %109
V:5
 x6 | x6 | x6 | x6 | x6 | x6 | x6 | x6 | x6 | x6 | x6 | x6 | x6 | x6 | x6 | x6 | x6 | x6 | x6 | %19
 x6 | x6 | x6 | x6 | x6 | x6 | x6 | x6 | x6 | x6 | x6 | x6 | x6 | x6 | x6 | x6 | x6 | x6 | x6 | %38
 x6 | x6 | x6 | x6 | x6 | x6 | ^E6 | x6 | x6 | x6 | x6 | x6 | x6 | x6 | x6 | x6 | x6 | x6 | x6 | %57
 x6 | x6 | x6 | x6 | x6 | x6 | x6 | x6 | x6 | x6 | x6 | x6 | x6 | x6 | x6 | x6 | x6 | x6 | x6 | %76
 x6 | x6 | x6 | x6 | x6 | x6 | x6 | x6 | x6 | x6 | x6 | x6 | x6 | x6 | x6 | x6 | x6 | x6 | x6 | %95
 x6 | x6 | x6 | x6 | x6 | x6 | x6 | x6 | x6 | x6 | x6 | x6 | x6 | x6 |] %109

